img/introPhotoLeaves.svg

<?xml version="1.0" encoding="UTF-8"?>
<svg width="175px" height="144px" viewBox="0 0 175 144" version="1.1" xmlns="http://www.w3.org/2000/svg" xmlns:xlink="http://www.w3.org/1999/xlink">
    <!-- Generator: Sketch 47.1 (45422) - http://www.bohemiancoding.com/sketch -->
    <title>introPhotoLeaves</title>
    <desc>Created with Sketch.</desc>
    <defs></defs>
    <g id="Symbols" stroke="none" stroke-width="1" fill="none" fill-rule="evenodd">
        <g id="introPhotoLeaves">
            <path d="M21.3387136,64.2589436 C17.4553324,68.0751062 14.0787686,71.0561687 13.2358321,69.8626458 C12.3926662,68.6691229 12.4369468,65.3680645 15.7708361,63.102704 C19.1047255,60.8375722 20.9626731,57.7759961 23.3244553,59.0498039 C25.686008,60.3236117 21.3387136,64.2589436 21.3387136,64.2589436 M37.5052435,68.1091872 C37.3230738,66.9023979 38.2552596,64.1482374 39.90167,62.0809587 C41.5480805,60.0134513 44.4483417,61.2726203 45.5392951,62.8355452 C46.5644012,64.3042325 45.0788233,65.3669208 42.7370017,68.9602985 C40.8366091,71.8766299 37.6874132,69.3157479 37.5052435,68.1091872 M69.6386967,69.2549052 C72.8874664,68.4211775 76.4315163,67.7471047 76.8516079,70.9289938 C77.2716996,74.1108829 77.2687169,79.2811381 74.8218151,79.4391918 C72.3749133,79.5970168 71.1515772,79.6759293 71.1515772,79.6759293 C69.8032,76.7321501 66.3899269,70.0884041 69.6386967,69.2549052 M92.7460304,87.9992535 C92.9164991,85.1355304 90.2608133,81.1173976 92.9603207,81.834472 C95.6600576,82.5520039 95.7025027,81.8360731 95.7848691,85.5744669 C95.8670061,89.3133181 96.7907029,96.8305911 94.6406872,94.5624858 C92.4904422,92.2943806 92.7460304,87.9992535 92.7460304,87.9992535 M83.6384623,79.7617038 C82.4972631,83.5792387 80.2618984,82.742995 80.4734356,81.7486976 C81.0447235,79.0626992 81.1108001,73.5957787 83.1773022,74.7103891 C85.2438043,75.8249995 84.7796615,75.9441688 83.6384623,79.7617038 M110.587879,92.8206926 C110.33665,89.3602081 111.435404,86.2586039 113.542975,89.2426399 C115.650546,92.2264472 116.198431,93.2607727 113.497547,95.128826 C110.796434,96.9966504 110.587879,92.8206926 110.587879,92.8206926 M48.3468654,48.1649115 C46.7722674,47.0271992 51.1904566,43.4061449 51.5559432,42.8768594 C51.5559432,42.8768594 53.3712163,40.531214 55.9018611,41.5268839 C58.4325059,42.522325 56.1530901,44.9871396 54.5477482,48.9238439 C52.9424062,52.8603194 50.5232658,49.7374432 48.3468654,48.1649115 M73.4837625,58.3990617 C71.9240777,56.4493513 78.7173562,54.0673375 82.9366271,53.1540112 C88.8011613,51.8840918 85.9311852,54.0305117 84.6635685,57.4104826 C83.3961812,60.7902248 82.1726156,60.869366 79.0502633,62.140429 C75.9279111,63.411492 75.0436767,60.3485435 73.4837625,58.3990617 M45.6246441,31.1237008 C42.1675493,45.0541581 41.099998,30.3453262 41.4393293,27.2034652 C41.7786605,24.0616042 43.259191,18.4526412 44.5268077,15.0726703 C45.794195,11.6926994 53.3904887,6.92386861 53.3904887,6.92386861 L54.6564994,6.12902535 L55.3732477,6.88521292 C56.0899961,7.64117176 52.3330325,11.8948984 49.883148,17.2229787 C47.4332636,22.5512877 47.4484062,23.7750032 45.6246441,31.1237008 M57.4691172,30.5504987 C58.1872421,28.7213299 64.7302094,21.1679173 69.7121152,14.2501505 C74.694021,7.33238374 80.1696664,5.46753277 85.4523588,5.74681439 C86.2117816,5.7870712 85.1130275,8.8886754 79.0369562,11.1526635 C72.9611144,13.4166516 73.8453487,16.4796001 71.6494465,20.0976808 C69.4537737,23.7157616 64.0914682,31.9061925 61.5167723,34.2115811 C58.9420763,36.5169696 56.7507628,32.3796675 57.4691172,30.5504987 M59.7306372,133.362273 C58.423558,132.287691 52.4826227,119.478249 50.5044523,111.761522 C48.5260525,104.044566 49.24716,97.0451416 50.0960617,87.898154 C50.9449635,78.7509376 51.1989457,77.0407094 53.9454868,69.2866989 C56.692028,61.5326884 56.9859315,64.2770134 60.4857009,66.9037703 C63.9856996,69.5302984 58.4985826,74.6980376 55.7109729,80.5828512 C52.9233633,86.4676648 55.7873741,94.6622129 57.42346,110.691056 C59.059546,126.720129 68.0406966,134.519885 69.9794045,137.782059 C71.9181124,141.044462 76.0100481,141.404486 81.0300398,141.5264 C86.0500315,141.648314 84.321484,139.976971 84.321484,139.976971 C84.321484,139.976971 80.400017,136.753452 77.1115554,133.132398 C73.8230938,129.511572 72.8991675,121.994299 69.822243,117.379176 C66.7453185,112.764053 69.5375168,99.1236281 70.0895323,92.402342 C70.6420067,85.6812847 76.1656036,90.1385827 77.5977237,94.235628 C79.0296144,98.332902 79.1500666,109.111205 79.0192899,116.429253 C78.8885132,123.7473 82.8056209,134.726202 84.7870034,137.272674 C86.7683858,139.819146 92.631314,141.134583 98.0303288,142.56896 C103.429344,144.003566 114.271424,143.571492 121.864506,143.973145 C129.457817,144.37457 118.280994,140.192893 114.359527,136.969375 C110.43806,133.745857 107.382472,128.001256 101.126526,113.576738 C95.9291824,101.593704 98.5146616,105.944184 99.5739533,98.7013891 C101.252943,87.2220226 108.304104,103.04089 110.578931,108.331687 C112.853988,113.622484 115.970604,122.69216 118.539564,130.727282 C121.108295,138.762633 128.194789,139.999158 142.116777,139.011722 C156.038765,138.024515 151.905531,135.795294 145.95886,133.326363 C140.012189,130.857659 140.349914,130.300926 135.882167,123.457726 C131.414191,116.614754 131.329072,118.046616 129.140741,108.73883 C126.95218,99.4310438 140.655289,112.364001 144.57538,118.172647 C148.495241,123.981293 153.809136,126.847532 158.279865,128.520248 C162.750595,130.192965 165.328273,122.717092 169.295168,120.054424 C173.262292,117.391528 176.722369,115.563732 174.067143,111.545599 C171.411686,107.527237 171.83476,105.538871 171.922863,98.9367542 C172.010965,92.3346374 171.254525,87.1241253 166.193235,85.1330144 C161.132175,83.1416747 153.496419,83.456181 148.64529,83.0559002 C143.793931,82.6558482 135.312256,86.9468581 128.266831,87.5797592 C121.221406,88.2124316 131.982726,81.456607 136.835232,79.2715314 C141.687967,77.0866845 154.285439,77.768763 163.142925,79.9607005 C172.00087,82.1526381 169.121258,78.5043647 168.15328,74.2879213 C167.185532,70.0717067 167.805919,68.2704432 163.082584,65.7225989 C158.359249,63.1747545 145.491735,64.3614155 139.796293,65.3529682 C134.100392,66.3442921 121.526781,70.2752781 114.184699,73.3341094 C106.842617,76.3929408 104.059366,74.5221428 102.415939,71.4191662 C100.772511,68.3159608 112.206528,65.6173822 116.130749,63.6704165 C120.055198,61.7236795 138.367155,56.0852101 143.218284,56.4854909 C148.069413,56.8857717 151.823624,57.8023003 152.837029,56.1323289 C153.850434,54.4623575 147.821167,48.2550319 145.334803,43.9583037 C142.848209,39.6618042 141.286918,40.2972213 137.237657,39.2214953 C133.188396,38.1455406 124.706721,42.4365505 120.529665,43.5083881 C116.35261,44.5799969 111.583618,47.9185673 99.2201678,53.4406122 C86.8564881,58.9626571 90.0655659,53.6746049 91.9235135,50.6130288 C93.7814611,47.5516814 99.5062706,50.0652159 116.807805,40.9264627 C134.10911,31.7877094 138.441262,37.569365 137.537296,31.6250811 C137.189247,29.3361612 126.574993,21.2788522 123.580205,20.4023517 C120.585418,19.5258512 113.709084,19.8801568 115.775357,20.994996 C117.841859,22.1096064 118.197251,21.8467935 119.376536,25.0689394 C120.555821,28.2908565 110.059954,27.4244202 105.788373,28.0852266 C101.174477,28.79887 97.0956192,29.0621404 89.1042421,33.6193943 C85.1889698,35.8522748 80.7739927,40.4573336 75.1801893,42.6899854 C70.0817316,44.7250129 76.4067376,37.4405889 78.5597358,34.5384389 C80.7129635,31.6360602 92.3199735,20.9035032 102.784637,16.5736089 C113.249301,12.2439432 121.303772,17.6966824 121.303772,17.6966824 C121.303772,17.6966824 120.376863,15.3496646 117.593842,13.4790954 C114.810592,11.6082974 102.285391,4.48284206 93.0059779,1.69391433 C83.7265646,-1.09478467 86.6348559,3.79870503 86.6348559,3.79870503 C86.6348559,3.79870503 80.9405609,2.20490133 77.2292545,0.572441954 C73.5177186,-1.06001742 63.4761292,1.28151076 59.3417484,1.63718882 C55.2071383,1.99309562 52.2536487,2.98579195 46.431789,3.53978055 C40.6096999,4.09354041 34.5733205,10.8120817 30.098232,16.8949772 C25.622914,22.9776439 25.95628,30.1767508 27.6410057,35.1489243 C29.3257314,40.1213265 39.3884287,46.7085757 40.5266452,48.0615247 L41.00616,48.6383865 C41.00616,48.6383865 41.0784313,48.6059066 40.9506372,50.7534702 C40.8228431,52.9012624 38.6842991,51.819132 32.9900042,50.2253283 C27.2957092,48.6315246 26.2001671,46.5628735 15.3580864,46.9947193 C4.51600561,47.4267938 9.36438149,52.9973298 2.94599633,63.5734342 C-3.47238884,74.1495385 2.55963134,75.1866089 2.80948376,81.232221 C3.05910674,87.2776044 1.2605823,84.692248 1.07634769,87.3164888 C0.982280201,88.6561714 5.46195743,90.4208378 4.3632033,93.522442 C3.26467861,96.6242749 9.71679042,100.843234 14.8189191,104.703771 C19.9212772,108.564307 25.6582466,109.44218 25.6582466,109.44218 C25.6582466,109.44218 24.651954,98.1860562 24.4450055,91.424742 C24.2378276,84.6634278 28.9641452,82.0407882 31.6666352,77.5878361 C34.3691253,73.1346552 35.2974108,72.8965453 37.9115691,75.0454813 C40.5259569,77.194646 33.9800071,89.9183139 29.2491008,100.296336 C24.518424,110.674359 28.5676852,111.750314 29.492988,116.682459 C30.4182909,121.614833 33.9196662,121.656234 40.2453605,125.437858 C46.5710548,129.219253 61.0379458,134.436856 59.7306372,133.362273 Z" id="Fill-86" fill="#4C6231"></path>
            <path d="M50.3446747,69.3573106 C49.5390735,63.7948284 47.5787773,52.0360862 39.4083547,49.1529028 C31.2379322,46.2697194 24.917934,43.3855824 21.2535831,46.0631647 C17.5892323,48.740747 11.9687456,48.9898333 9.77092931,52.0892983 C7.57311306,55.1887634 4.64288051,59.9433363 5.41141649,60.9639035 C6.17995248,61.9846614 9.25220534,62.3352132 14.6977669,61.7693334 C20.1435176,61.2034536 27.335494,61.939269 30.617657,63.4166215 C33.9000092,64.8937834 39.8697789,65.2780934 41.1279162,68.3054645 C42.3860534,71.3328357 37.6031272,70.4900238 33.7621493,69.1189048 C29.9213604,67.7475952 23.8112724,65.9900682 19.0635203,65.9570729 C14.3157682,65.9240775 2.44676623,66.7747091 1.88908596,68.7468012 C1.33140569,70.7187026 0.112792034,77.8313941 0.00972802971,81.0002829 C-0.0935250826,84.168981 0.641349633,88.1120209 1.44524886,89.9425953 C2.24895899,91.7729791 7.65764446,86.6651842 10.7633695,84.0934541 C13.8692836,81.5217239 17.1143814,78.4569707 23.0833947,76.9754222 C29.0524079,75.4938737 39.386229,76.3338248 41.8654384,77.8466521 C44.3448368,79.3594794 46.2304353,80.1683423 46.0212816,80.9079722 C45.8121279,81.6472207 41.1332112,79.5017599 37.3629597,79.7500833 C33.5928974,79.998216 28.3553549,77.9587981 21.2013892,83.6307563 C14.0474236,89.3027144 11.464772,90.9587758 9.09221975,93.7414474 C6.71966746,96.5239282 5.88229607,97.6158264 5.15006887,99.2709342 C4.41765256,100.926233 4.83766202,103.179262 7.49349848,108.740982 C10.1491458,114.302701 13.0476082,116.202508 13.0476082,116.202508 C13.0476082,116.202508 15.0372163,115.708722 17.6879468,110.073956 C20.3384882,104.439379 17.8581442,101.060694 25.6412731,96.9023258 C33.4242128,92.7439579 35.3786467,91.4403554 39.4981811,91.825619 C43.6177156,92.2108827 48.1555575,91.117268 45.922378,93.4069165 C43.6891985,95.696565 39.047347,98.0930193 34.6488779,98.693611 C30.2504088,99.2942026 23.8632772,102.25482 22.3986337,105.565036 C20.9339902,108.875442 15.4564693,116.095893 15.7017427,118.032129 C15.9470161,119.968556 18.5665438,122.854409 22.8273421,126.478939 C27.0881404,130.103278 28.6938587,130.032138 30.9994666,133.094221 C33.3050746,136.156113 33.7602582,139.21915 34.9478581,140.626888 C36.135458,142.034626 33.82985,138.972543 40.0441367,139.427421 C46.2584234,139.882109 46.189588,141.994765 53.2756637,140.301321 C60.3615504,138.607878 61.8278959,139.02976 66.8192194,137.266893 C71.8105429,135.504026 72.4387606,135.151567 71.9482138,131.278904 C71.4576669,127.406242 73.3767376,125.292823 71.3500643,121.244885 C69.323391,117.196756 68.8682075,114.13391 64.9559357,109.276918 C61.0436639,104.419926 58.9120356,99.8087775 61.0419619,100.687827 C63.1718883,101.567067 65.4773072,104.62915 67.6435423,108.184256 C69.8095884,111.739172 71.6263515,114.660691 72.745116,118.180894 C73.8638805,121.701289 73.344211,130.081154 73.3096041,131.137387 C73.2751864,132.19362 74.4276122,132.791732 76.6952094,129.445851 C78.9628066,126.099969 79.9386052,122.648999 78.8896217,118.882189 C77.8404491,115.115378 75.5323827,106.455148 73.5064659,104.273258 C71.4807381,102.091179 67.2543575,97.410416 65.6123305,94.8058812 C63.9704925,92.2011557 60.7913935,87.5552958 64.9462912,88.750376 C69.1011888,89.9454562 73.3971613,94.3796118 75.9480427,99.3781215 C78.4987349,104.37644 80.2810803,108.354192 81.0513183,113.107048 C81.8215562,117.859714 80.846514,123.176734 83.6020105,118.105367 C86.3576962,113.034001 89.0082376,107.399425 87.609782,102.999027 C86.2111373,98.5986301 81.5656928,93.5306967 79.4357664,92.6514564 C77.30584,91.7724069 71.7199601,90.9652605 72.0675411,87.866749 C72.4151221,84.7682376 71.0873929,81.9872826 74.893575,84.414825 C78.6999461,86.8425581 81.3540806,88.6721789 83.9736083,91.5578417 C86.5933251,94.4436953 89.07348,97.8225718 88.5131522,94.1963255 C87.9530135,90.5702699 88.5795292,86.4857124 85.0165404,82.2623074 C81.4537407,78.0390932 80.055285,73.6386958 75.4115425,72.3028609 C70.7679891,70.9672167 69.8247171,69.6296653 65.9856302,71.9906448 C62.1467324,74.3514335 63.2989691,74.9493551 59.0056441,76.1131564 C54.7121301,77.2771485 51.150276,74.9199835 50.3446747,69.3573106" id="Fill-92" fill="#637D38"></path>
        </g>
    </g>
</svg>

<svg width="175" height="144" xmlns="http://www.w3.org/2000/svg">
  <g fill="none" fill-rule="evenodd">
    <path d="M21.3 64.3c-3.8 3.8-7.2 6.8-8 5.6-1-1.2-.9-4.5 2.5-6.8 3.3-2.3 5.2-5.3 7.5-4 2.4 1.2-2 5.2-2 5.2M37.5 68c-.2-1.2.8-4 2.4-6 1.6-2 4.5-.8 5.6.7 1 1.5-.4 2.6-2.8 6.2-1.9 2.9-5 .3-5.2-.9m32.1 1.2c3.3-.9 6.8-1.6 7.3 1.6.4 3.2.4 8.4-2 8.5l-3.7.3c-1.4-3-4.8-9.6-1.6-10.4M92.7 88c.2-2.9-2.4-6.9.3-6.2 2.7.8 2.7 0 2.8 3.8 0 3.7 1 11.2-1.2 9-2.1-2.3-1.9-6.6-1.9-6.6m-9-8.2c-1.2 3.8-3.4 3-3.2 2 .5-2.7.6-8.2 2.7-7 2 1 1.6 1.1.4 5m27 13c-.3-3.4.8-6.5 3-3.6 2 3 2.6 4-.1 6-2.7 1.8-3-2.4-3-2.4M48.4 48.2c-1.5-1.2 2.9-4.8 3.3-5.3 0 0 1.8-2.4 4.3-1.4s.3 3.5-1.4 7.4c-1.6 4-4 .8-6.2-.7m25.2 10.2c-1.6-2 5.2-4.3 9.4-5.2 5.9-1.3 3 .8 1.8 4.2-1.3 3.4-2.5 3.5-5.6 4.7-3.2 1.3-4-1.8-5.6-3.7M45.6 31.1c-3.4 14-4.5-.8-4.2-3.9.4-3.1 1.9-8.7 3.1-12.1 1.3-3.4 8.9-8.2 8.9-8.2l1.3-.8.7.8c.7.7-3 5-5.5 10.3-2.5 5.4-2.5 6.6-4.3 14m11.9-.6c.7-1.9 7.2-9.4 12.2-16.3 5-7 10.5-8.8 15.8-8.6.7 0-.4 3.2-6.5 5.5-6 2.2-5.2 5.3-7.4 8.9a93.8 93.8 0 0 1-10 14.1c-2.7 2.3-4.8-1.8-4.1-3.6m2.2 102.8a89 89 0 0 1-9.2-21.6c-2-7.8-1.3-14.8-.4-23.9.8-9.1 1.1-10.9 3.8-18.6 2.8-7.8 3-5 6.6-2.4 3.5 2.6-2 7.8-4.8 13.7-2.8 5.9 0 14 1.7 30 1.7 16.1 10.6 24 12.6 27.2 2 3.2 6 3.6 11 3.7 5 .1 3.3-1.5 3.3-1.5s-3.9-3.2-7.2-6.9c-3.3-3.6-4.2-11.1-7.3-15.7-3-4.6-.3-18.3.3-25 .5-6.7 6-2.3 7.5 1.8a92.7 92.7 0 0 1 1.4 22.2 46.8 46.8 0 0 0 5.8 20.9c2 2.5 7.8 3.8 13.2 5.3 5.4 1.4 16.3 1 23.9 1.4 7.6.4-3.6-3.8-7.5-7-4-3.3-7-9-13.3-23.4-5.2-12-2.6-7.7-1.5-14.9 1.7-11.5 8.7 4.3 11 9.6 2.3 5.3 5.4 14.4 8 22.4 2.5 8 9.6 9.3 23.5 8.3 14-1 9.8-3.2 3.9-5.7-6-2.4-5.7-3-10.1-9.8-4.5-6.9-4.6-5.5-6.8-14.8-2.1-9.3 11.6 3.7 15.5 9.5 3.9 5.8 9.2 8.6 13.7 10.3 4.5 1.7 7-5.8 11-8.4 4-2.7 7.4-4.5 4.8-8.6-2.7-4-2.3-6-2.2-12.6.1-6.6-.6-11.8-5.7-13.8-5-2-12.7-1.6-17.6-2-4.8-.4-13.3 3.8-20.3 4.5-7 .6 3.7-6.1 8.5-8.3 4.9-2.2 17.5-1.5 26.3.7 8.9 2.2 6-1.5 5-5.7s-.3-6-5-8.6c-4.7-2.5-17.6-1.3-23.3-.3-5.7 1-18.3 4.9-25.6 8-7.4 3-10.1 1.1-11.8-2-1.6-3 9.8-5.8 13.7-7.7 4-2 22.3-7.6 27.1-7.2 4.9.4 8.6 1.3 9.6-.4 1-1.6-5-7.8-7.5-12.1s-4-3.7-8-4.8c-4.1-1-12.6 3.2-16.8 4.3-4.1 1-9 4.4-21.3 10-12.3 5.5-9.1.2-7.3-2.9 1.9-3 7.6-.5 25-9.7 17.2-9.1 21.5-3.3 20.6-9.3-.3-2.3-11-10.3-14-11.2-3-.9-9.8-.5-7.7.6 2 1.1 2.4.8 3.6 4 1.2 3.3-9.3 2.4-13.6 3-4.6.8-8.7 1-16.7 5.6-4 2.3-8.3 6.9-14 9-5 2.1 1.3-5.2 3.5-8a77.7 77.7 0 0 1 24.2-18 20.5 20.5 0 0 1 18.5 1.1s-1-2.4-3.7-4.2c-2.8-1.9-15.3-9-24.6-11.8-9.3-2.8-6.4 2.1-6.4 2.1S81 2.2 77.2.6c-3.7-1.7-13.7.7-17.9 1-4 .4-7 1.4-12.9 2-5.8.5-11.8 7.2-16.3 13.3A20 20 0 0 0 27.6 35c1.7 5 11.8 11.6 13 13l.4.5v2.2c-.2 2.1-2.3 1-8-.6s-6.8-3.6-17.6-3.2c-10.9.4-6 6-12.5 16.6-6.4 10.5-.3 11.6 0 17.6.2 6-1.6 3.5-1.8 6.1-.1 1.4 4.4 3.1 3.3 6.2-1.1 3.1 5.3 7.3 10.4 11.2a26.8 26.8 0 0 0 10.9 4.7s-1-11.2-1.3-18c-.2-6.7 4.6-9.4 7.3-13.8 2.7-4.5 3.6-4.7 6.2-2.6 2.6 2.2-4 15-8.7 25.3-4.7 10.4-.6 11.5.3 16.4 1 5 4.4 5 10.7 8.7 6.4 3.8 20.8 9 19.5 8z" fill="#4C6231"/>
    <path d="M50.3 69.4c-.8-5.6-2.7-17.4-10.9-20.2-8.2-3-14.5-5.8-18.1-3.1-3.7 2.6-9.3 2.9-11.5 6-2.2 3-5.2 7.8-4.4 8.9.8 1 3.9 1.3 9.3.8a38 38 0 0 1 16 1.6c3.2 1.5 9.2 1.9 10.4 5 1.3 3-3.5 2-7.3.7-3.9-1.4-10-3.1-14.7-3.1-4.8 0-16.7.8-17.2 2.7C1.3 70.7 0 77.8 0 81c0 3.2.6 7.1 1.4 9 .8 1.8 6.3-3.3 9.4-6 3-2.5 6.3-5.5 12.3-7 6-1.5 16.3-.7 18.8.8 2.4 1.6 4.3 2.4 4.1 3.1-.2.7-4.9-1.4-8.6-1.1-3.8.2-9-1.8-16.2 3.8C14 89.3 11.5 91 9.1 93.7a21.7 21.7 0 0 0-4 5.6c-.7 1.6-.3 3.9 2.4 9.4 2.6 5.6 5.5 7.5 5.5 7.5s2-.5 4.7-6.1c2.6-5.7.2-9 8-13.2 7.7-4.2 9.7-5.5 13.8-5 4.1.3 8.7-.8 6.4 1.5a21.5 21.5 0 0 1-11.3 5.3c-4.3.6-10.7 3.6-12.2 6.9-1.5 3.3-7 10.5-6.7 12.4.2 2 2.9 4.9 7.1 8.5 4.3 3.6 5.9 3.5 8.2 6.6 2.3 3 2.8 6.1 4 7.5 1.1 1.4-1.2-1.6 5-1.2 6.3.5 6.2 2.6 13.3.9 7-1.7 8.5-1.3 13.5-3 5-1.8 5.6-2.1 5.1-6-.4-3.9 1.5-6-.5-10-2-4.1-2.5-7.2-6.4-12-4-4.9-6-9.5-4-8.6 2.2.9 4.5 4 6.6 7.5 2.2 3.5 4 6.5 5.1 10 1.2 3.5.6 11.9.6 13 0 1 1.1 1.6 3.4-1.8 2.3-3.3 3.2-6.8 2.2-10.5-1-3.8-3.4-12.4-5.4-14.6-2-2.2-6.2-6.9-7.9-9.5-1.6-2.6-4.8-7.2-.7-6 4.2 1.1 8.5 5.6 11 10.6 2.6 5 4.4 9 5.2 13.7.7 4.8-.3 10 2.5 5s5.4-10.7 4-15.1c-1.4-4.4-6-9.5-8.2-10.3-2-1-7.7-1.7-7.3-4.8.3-3.1-1-6 2.8-3.5 3.8 2.4 6.5 4.3 9 7.2 2.7 2.8 5.2 6.2 4.6 2.6-.5-3.6 0-7.7-3.5-12-3.5-4.2-5-8.6-9.6-9.9-4.6-1.3-5.6-2.7-9.4-.3-3.9 2.4-2.7 3-7 4.1-4.3 1.2-7.8-1.2-8.7-6.7" fill="#637D38"/>
  </g>
</svg>
